X:6208
T:Spike Island Lasses, The
O:england
R:reel
S:Session Galway 1992
M:C|
K:Dmix
cAGB AD~D2|AD~D2 FGAB|cAGB AGFG|1 Adde fded:|2 Add^c d3e||
f2df efge|fded ^cA~A2|f2df ed^cB|Add^c d2^cd|
ea~a2 efge|dfed =cAAG|Add^c d3=c|Adde fded||
cAGB ~A3d|~B3G ~A3d|cAGB AGFG|Adde fded|
cAGB ~A3d|BGGF GBdB|cAGB AGFG|Add^c d3e||
(3fed ad fdad|(3fed af ge~e2|fdad bdad|fage dcAc|
defg ~a3b|agfa ~g3e|fedf ed^cA|d^cde fded||
